resources/svg/brands/buromobelexperte.svg

<svg fill="currentColor" xmlns="http://www.w3.org/2000/svg" viewBox="0 0 448 512"><!--! Font Awesome Free 7.0.0 by @fontawesome - https://fontawesome.com License - https://fontawesome.com/license/free (Icons: CC BY 4.0, Fonts: SIL OFL 1.1, Code: MIT License) Copyright 2025 Fonticons, Inc. --><path fill="currentColor" d="M0 32l0 128 128 0 0-128-128 0zM120 152l-112 0 0-112 112 0 0 112zM160 32l0 128 128 0 0-128-128 0zM280 152l-112 0 0-112 112 0 0 112zM320 32l0 128 128 0 0-128-128 0zM440 152l-112 0 0-112 112 0 0 112zM0 192l0 128 128 0 0-128-128 0zM120 312l-112 0 0-112 112 0 0 112zm40-120l0 128 128 0 0-128-128 0zM280 312l-112 0 0-112 112 0 0 112zm40-120l0 128 128 0 0-128-128 0zM440 312l-112 0 0-112 112 0 0 112zM0 352l0 128 128 0 0-128-128 0zM120 472l-112 0 0-112 112 0 0 112zm40-120l0 128 128 0 0-128-128 0zM280 472l-112 0 0-112 112 0 0 112zm40-120l0 128 128 0 0-128-128 0z"/></svg>

<svg fill="currentColor" xmlns="http://www.w3.org/2000/svg" viewBox="0 0 448 512"><!--! Font Awesome Free 6.7.2 by @fontawesome - https://fontawesome.com License - https://fontawesome.com/license/free (Icons: CC BY 4.0, Fonts: SIL OFL 1.1, Code: MIT License) Copyright 2024 Fonticons, Inc. --><path d="M0 32v128h128V32H0zm120 120H8V40h112v112zm40-120v128h128V32H160zm120 120H168V40h112v112zm40-120v128h128V32H320zm120 120H328V40h112v112zM0 192v128h128V192H0zm120 120H8V200h112v112zm40-120v128h128V192H160zm120 120H168V200h112v112zm40-120v128h128V192H320zm120 120H328V200h112v112zM0 352v128h128V352H0zm120 120H8V360h112v112zm40-120v128h128V352H160zm120 120H168V360h112v112zm40-120v128h128V352H320z"/></svg>
